teeny/outline/audio-document.svg

<svg width="15" height="15" viewBox="0 0 15 15" fill="none" xmlns="http://www.w3.org/2000/svg">
<path d="M13.5 3.5H14V3.29289L13.8536 3.14645L13.5 3.5ZM10.5 0.5L10.8536 0.146447L10.7071 0H10.5V0.5ZM7.5 4.5L7.9 4.2C7.77087 4.02783 7.54606 3.9576 7.34189 4.02566C7.13771 4.09372 7 4.28478 7 4.5H7.5ZM7.8 4.9L8.2 4.6L7.8 4.9ZM12.5 14H2.5V15H12.5V14ZM2 13.5V1.5H1V13.5H2ZM13 3.5V13.5H14V3.5H13ZM2.5 1H10.5V0H2.5V1ZM10.1464 0.853553L13.1464 3.85355L13.8536 3.14645L10.8536 0.146447L10.1464 0.853553ZM2.5 14C2.22386 14 2 13.7761 2 13.5H1C1 14.3284 1.67157 15 2.5 15V14ZM12.5 15C13.3284 15 14 14.3284 14 13.5H13C13 13.7761 12.7761 14 12.5 14V15ZM2 1.5C2 1.22386 2.22386 1 2.5 1V0C1.67157 0 1 0.671574 1 1.5H2ZM6 11C5.44772 11 5 10.5523 5 10H4C4 11.1046 4.89543 12 6 12V11ZM7 10C7 10.5523 6.55228 11 6 11V12C7.10457 12 8 11.1046 8 10H7ZM6 9C6.55228 9 7 9.44772 7 10H8C8 8.89543 7.10457 8 6 8V9ZM6 8C4.89543 8 4 8.89543 4 10H5C5 9.44772 5.44772 9 6 9V8ZM7 6.5V10H8V6.5H7ZM8 7V4.5H7V7H8ZM7.1 4.8L7.4 5.2L8.2 4.6L7.9 4.2L7.1 4.8ZM7.4 5.2C8.24984 6.33313 9.58359 7 11 7V6C9.89835 6 8.86099 5.48132 8.2 4.6L7.4 5.2Z" fill="black"/>
</svg>

<svg viewBox="0 0 15 15" xmlns="http://www.w3.org/2000/svg"><path d="M13.5 3.5h.5v-.21l-.15-.15 -.36.35Zm-3-3l.35-.36 -.15-.15h-.21v.5Zm-3 4l.4-.3c-.13-.18-.36-.25-.56-.18 -.21.06-.35.25-.35.47h.5Zm.3.4l.4-.3 -.4.3Zm4.7 9.1h-10v1h10v-1ZM2 13.5v-12H1v12h1Zm11-10v10h1v-10h-1ZM2.5 1h8V0h-8v1Zm7.64-.15l3 2.99 .7-.71 -3-3.01 -.71.7ZM2.49 13.99c-.28 0-.5-.23-.5-.5h-1c0 .82.67 1.5 1.5 1.5v-1Zm10 1c.82 0 1.5-.68 1.5-1.5h-1c0 .27-.23.5-.5.5v1ZM1.99 1.49c0-.28.22-.5.5-.5v-1c-.83 0-1.5.67-1.5 1.5h1Zm4 9.5c-.56 0-1-.45-1-1h-1c0 1.1.89 2 2 2v-1Zm1-1c0 .55-.45 1-1 1v1c1.1 0 2-.9 2-2h-1Zm-1-1c.55 0 1 .44 1 1h1c0-1.11-.9-2-2-2v1Zm0-1c-1.11 0-2 .89-2 2h1c0-.56.44-1 1-1v-1Zm1-1.5v3.5h1v-3.5h-1Zm1 .5v-2.5h-1v2.5h1Zm-.9-2.2l.3.4 .8-.6 -.3-.4 -.8.6Zm.3.4c.84 1.13 2.18 1.8 3.6 1.8v-1c-1.11 0-2.14-.52-2.8-1.4l-.8.6Z"/></svg>
